X:1
T:Title
%%score 1 { 2 | 3 }
L:1/8
Q:1/4=110
M:4/4
K:G
V:1 treble nm="Grand Piano, Staff"
V:2 bass nm="Choir Pad, Moultrie, 87.87 D"
V:3 bass 
V:1
 [Gd]3 [DG] [DG]2 [DF]2 | [FB]3 [FA] [FA]2 G2 | [Ad]3 [Ac] [GB]2 G2 | [GA]2 [FB]2 [DG]4 | %4
w: By~Gerard~Francis~Cobb,~1890 * * *||||
 D3 [DG] [DG]2 [DF]2 | [FB]3 [FA] [EA]2 [EG]2 | [Dd]3 [Dc] [DB]2 G2 | [GA]2 [FB]2 [DG]4 | %8
w: ||||
 [Gd]3 [Ad] [^Ge]2 [EB]2 | [Ec]3 [Ee] [Ad]2 [GB]2 | [GB]3 [AB] [GB]2 [B^c]2 | %11
w: |||
 [Bd]2 [_B^c]2 [F=B]4 | [=FB]3 [FB] [EB]2 [EA]2 | [^DA]3 [DA] [=DA]2 [DG]2 | [Gd]3 [Gc] [FB]2 G2 | %15
w: ||||
 [GA]2 [FB]2 [DG]4- | [DG]4 z4 |] %17
w: ||
V:2
 B,3 B, B,2 A,2 | D3[K:treble] C C2 B,2 | D3 D D2 E2 | E2 D2[K:bass] B,4 | C3 B, A,2 A,2 | %5
 B,3 B, B,2 B,2 | A,3 A, G,2 B,2 | C2 D2 B,4 | B,3 B, A,2[K:treble] D2 | C3 B, A,2 D2 | %10
 D3 ^D E2 G2 | F2 E2 D4 | D3 D D2 C2 | C3 C C2 B,2 | D3 E D2[K:bass] B,2 | E2 D2 B,4- | B,4 z4 |] %17
V:3
 G,3 G, D,2 D,2 | D,3 D, E,2 E,2 | F,3 F, G,2 E,2 | C,2 D,2 G,4 | F,3 G, D,2 D,2 | %5
 ^D,3 D, E,2 E,2 | F,3 F, z2 E,2 | ^D,2 =D,2 G,,4 | G,3 =F, F,2 G,2 | A,3 G, F,2 G,2 | %10
 G,3 F, E,2 E,2 | F,2 F,2 B,2 A,2 | ^G,3 G, A,2 A,2 | F,3 F, G,2 G,2 | B,,3 C, D,2 E,2 | %15
 C,2 D,2 G,,4- | G,,4 z4 |] %17

